packages/icons/svg/24/LatestWorks.svg

<svg width="24" height="24" viewBox="0 0 24 24" fill="none" xmlns="http://www.w3.org/2000/svg">
<path d="M2 10L5.49999 12L7.5 17L9.49999 12L13 10L9.49999 8L7.49101 3L5.49999 8L2 10Z" fill="#858585"/>
<path d="M11 14L14.5 16L16.5 21L18.5 16L22 14L18.5 12L16.491 7L14.5 12L11 14Z" fill="#858585"/>
</svg>

<svg width="24" height="24" fill="none" xmlns="http://www.w3.org/2000/svg" viewBox="0 0 24 24"><path d="M2 10l3.5 2 2 5 2-5 3.5-2-3.5-2-2.009-5L5.5 8 2 10zM11 14l3.5 2 2 5 2-5 3.5-2-3.5-2-2.009-5-1.991 5-3.5 2z" fill="currentColor"></path></svg>
